public/img/icon-map-marker.svg

<svg height="24" viewBox="0 0 24 24" width="24" xmlns="http://www.w3.org/2000/svg"><path d="m12 0c-3.67244843 0-6.66044029 3.04279878-6.66044029 6.7826087 0 2.64945652 1.59106083 5.9205162 3.14609739 8.6046198 1.5530354 2.6841032 3.1060707 4.7567932 3.1060707 4.7567932l.4082722.5400814.4082722-.5400814s1.5530353-2.07269 3.1060707-4.7567932c1.5550366-2.6841036 3.1460974-5.95516328 3.1460974-8.6046198 0-3.73980992-2.9879919-6.7826087-6.6604403-6.7826087zm0 1.04347826c3.118079 0 5.6357572 2.56385896 5.6357572 5.73913044 0 2.19904904-1.4829886 5.4497285-3.0020014 8.0747285-1.3168776 2.2724181-2.3035358 3.5808423-2.6337558 4.0292118-.33022-.4483695-1.3168777-1.7567937-2.63375584-4.0292118-1.5190128-2.625-3.00200133-5.87567946-3.00200133-8.0747285 0-3.17527148 2.51767871-5.73913044 5.63575717-5.73913044zm0 3.13043478c-1.4089393 0-2.56170781 1.17391305-2.56170781 2.60869566 0 1.4347826 1.15276851 2.60869565 2.56170781 2.60869565s2.5617078-1.17391305 2.5617078-2.60869565c0-1.43478261-1.1527685-2.60869566-2.5617078-2.60869566zm0 1.04347826c.8545698 0 1.5370247.6949727 1.5370247 1.5652174 0 .87024469-.6824549 1.56521739-1.5370247 1.56521739s-1.5370247-.6949727-1.5370247-1.56521739c0-.8702447.6824549-1.5652174 1.5370247-1.5652174zm-9.0700467 10.4347826-2.9299533 8.3478261h24l-2.9299533-8.3478261h-3.9206139c-.2001334.3586957-.4002668.7072012-.6004002 1.0434783h3.8005338l2.1934623 6.2608695h-21.08605739l2.19346231-6.2608695h3.80053382c-.20013342-.3362771-.40026684-.6847826-.60040027-1.0434783z" fill="#fff"/></svg>

<?xml version="1.0" encoding="UTF-8"?>
<svg width="24px" height="24px" viewBox="0 0 24 24" version="1.1" xmlns="http://www.w3.org/2000/svg" xmlns:xlink="http://www.w3.org/1999/xlink">
    <!-- Generator: Sketch 51.2 (57519) - http://www.bohemiancoding.com/sketch -->
    <title>map-marker</title>
    <desc>Created with Sketch.</desc>
    <defs></defs>
    <g id="FDS-Design-Pages" stroke="none" stroke-width="1" fill="none" fill-rule="evenodd">
        <g id="Home" transform="translate(-47.000000, -142.000000)" fill="#FFFFFF" fill-rule="nonzero">
            <g id="Menu">
                <g id="Get-Started" transform="translate(47.000000, 142.000000)">
                    <g id="icons8-address">
                        <path d="M12,0 C8.32755157,0 5.33955971,3.04279878 5.33955971,6.7826087 C5.33955971,9.43206522 6.93062054,12.7031249 8.4856571,15.3872285 C10.0386925,18.0713317 11.5917278,20.1440217 11.5917278,20.1440217 L12,20.6841031 L12.4082722,20.1440217 C12.4082722,20.1440217 13.9613075,18.0713317 15.5143429,15.3872285 C17.0693795,12.7031249 18.6604403,9.43206522 18.6604403,6.7826087 C18.6604403,3.04279878 15.6724484,0 12,0 Z M12,1.04347826 C15.118079,1.04347826 17.6357572,3.60733722 17.6357572,6.7826087 C17.6357572,8.98165774 16.1527686,12.2323372 14.6337558,14.8573372 C13.3168782,17.1297553 12.33022,18.4381795 12,18.886549 C11.66978,18.4381795 10.6831223,17.1297553 9.36624416,14.8573372 C7.84723136,12.2323372 6.36424283,8.98165774 6.36424283,6.7826087 C6.36424283,3.60733722 8.88192154,1.04347826 12,1.04347826 Z M12,4.17391304 C10.5910607,4.17391304 9.43829219,5.34782609 9.43829219,6.7826087 C9.43829219,8.2173913 10.5910607,9.39130435 12,9.39130435 C13.4089393,9.39130435 14.5617078,8.2173913 14.5617078,6.7826087 C14.5617078,5.34782609 13.4089393,4.17391304 12,4.17391304 Z M12,5.2173913 C12.8545698,5.2173913 13.5370247,5.912364 13.5370247,6.7826087 C13.5370247,7.65285339 12.8545698,8.34782609 12,8.34782609 C11.1454302,8.34782609 10.4629753,7.65285339 10.4629753,6.7826087 C10.4629753,5.912364 11.1454302,5.2173913 12,5.2173913 Z M2.9299533,15.6521739 L0,24 L24,24 L21.0700467,15.6521739 L17.1494328,15.6521739 C16.9492994,16.0108696 16.749166,16.3593751 16.5490326,16.6956522 L20.3495664,16.6956522 L22.5430287,22.9565217 L1.45697131,22.9565217 L3.65043362,16.6956522 L7.45096744,16.6956522 C7.25083402,16.3593751 7.0507006,16.0108696 6.85056717,15.6521739 L2.9299533,15.6521739 Z" id="map-marker"></path>
                    </g>
                </g>
            </g>
        </g>
    </g>
</svg>
